X:1
T:Israel (Goss), LM
T:Israel (Goss), LM
T:John Goss (1800–1880)
T:Public Domain Courtesy of the Cyber Hymnal™
C:John Goss (1800–1880)
Z:Public Domain
Z:Courtesy of the Cyber Hymnal™
%%score ( 1 2 ) ( 3 4 )
L:1/8
Q:1/4=110
M:4/4
K:Ab
V:1 treble 
V:2 treble 
V:3 bass 
V:4 bass 
V:1
 E2 | A2 E2 A2 B2 | c3 B A2 [EGB]2 | [EAc]2 [EGB]2 [EAc]2 [EBd]2 | [Ece]3 [EBd] [EAc]2 A2 | %5
 [Af]3 [Fd] [FA]2 [Af]2 | [Ae]3 [Ec] [CA]2 C2 | D2 E2 F2 [FB]2 | [EA]4 [DG]4 | [CA]6 |] %10
V:2
 E2 | A2 E2 A2 B2 | c3 B A2 x2 | x8 | x6 A2 | x8 | x6 C2 | D2 E2 F2 x2 | x8 | x6 |] %10
V:3
 E,2 | A,2 E,2 A,2 B,2 | C3 B, A,2 [E,B,]2 | [A,C]2 [E,B,]2 [A,C]2 [B,D]2 | %4
 [CE]3 [B,D] [A,C]2 A,2 | [D,D]3 [D,A,] [D,A,]2 [D,D]2 | [A,C]3 [A,,A,] [A,,A,]2 C,2 | %7
 D,2 E,2 F,2 [D,D]2 | [E,C]4 [E,B,]4 | [A,,A,]6 |] %10
V:4
 E,2 | A,2 E,2 A,2 B,2 | C3 B, A,2 x2 | x8 | x6 A,2 | x8 | x6 C,2 | D,2 E,2 F,2 x2 | x8 | x6 |] %10

